icons/fill-new-office-doc-file-mp3.svg

<svg xmlns="http://www.w3.org/2000/svg" width="32px" height="32px" viewBox="0 0 32 32" version="1.1">
    <title>fill-new-office-doc-file-mp3</title>
    <g id="fill-new-office-doc-file-mp3" stroke-width="1" fill-rule="evenodd">
        <path d="M28,25 L28,29 C28,29.5522847 27.5522847,30 27,30 L5,30 C4.44771525,30 4,29.5522847 4,29 L4,25 L28,25 Z M29,10 C29.5522847,10 30,10.4477153 30,11 L30,22 C30,22.5522847 29.5522847,23 29,23 L3,23 C2.44771525,23 2,22.5522847 2,22 L2,11 C2,10.4477153 2.44771525,10 3,10 L29,10 Z M10.271,12.4995349 L9,14.279 L7.728,12.4995349 L5.5,12.5 L5.5,20.5 L7.5,20.5 L7.5,15.62 L9,17.7204651 L10.5,15.619 L10.5,20.5 L12.5,20.5 L12.5,12.5 L10.271,12.4995349 Z M18.4,12.5 L13.5,12.5 L13.5,20.5 L15.5,20.5 L15.5,18.5 L18.4,18.5 C19.0075132,18.5 19.5,18.0075132 19.5,17.4 L19.5,13.6 C19.5,12.9924868 19.0075132,12.5 18.4,12.5 Z M25.4,12.5 L20.5,12.5 L20.5,14.5 L24.5,14.5 L24.5,15.5 L21.5,15.5 L21.5,17.5 L24.5,17.5 L24.5,18.5 L20.5,18.5 L20.5,20.5 L25.4,20.5 C26.0075132,20.5 26.5,20.0075132 26.5,19.4 L26.5,13.6 C26.5,12.9924868 26.0075132,12.5 25.4,12.5 Z M17.5,14.5 L17.5,16.5 L15.5,16.5 L15.5,14.5 L17.5,14.5 Z M20.0857864,2 C20.3510029,2 20.6053568,2.10535684 20.7928932,2.29289322 L26.5,8 L4,8 L4,3 C4,2.48716416 4.38604019,2.06449284 4.88337887,2.00672773 L5,2 L20.0857864,2 Z" id="&#24418;&#29366;" />
    </g>
</svg>

<svg xmlns="http://www.w3.org/2000/svg" viewBox="0 0 32 32"><path fill="currentColor" d="M28 25v4a1 1 0 0 1-1 1H5a1 1 0 0 1-1-1v-4zm1-15a1 1 0 0 1 1 1v11a1 1 0 0 1-1 1H3a1 1 0 0 1-1-1V11a1 1 0 0 1 1-1zm-18.729 2.5L9 14.279l-1.272-1.78L5.5 12.5v8h2v-4.88l1.5 2.1 1.5-2.101V20.5h2v-8zm8.129 0h-4.9v8h2v-2h2.9a1.1 1.1 0 0 0 1.1-1.1v-3.8a1.1 1.1 0 0 0-1.1-1.1m7 0h-4.9v2h4v1h-3v2h3v1h-4v2h4.9a1.1 1.1 0 0 0 1.1-1.1v-5.8a1.1 1.1 0 0 0-1.1-1.1m-7.9 2v2h-2v-2zM20.086 2a1 1 0 0 1 .707.293L26.5 8H4V3a1 1 0 0 1 .883-.993L5 2z"/></svg>
